X:1
T:Lord Rendal; or Crudin' Doo
M:6/8
L:1/8
K:G
 D| DFG A2 A| B2 B A2 A| BGBd-c B| A3- A2 A| A2 B F2 G| F2 E D2 A|\
 BAG F2 E| D3- D2||
